!!!!SEGMENT: pl-cz--i-171--002_zebrowski-marcin-jozef--adagio-pro-processione-in-d.krn
!!!cenid: 17xx:2324
!!!COM: Żebrowski, Marcin Józef
!!!COM-rismID:
!!!CDT: 1702-1770/06/29
!!!CNT: Polish
!!!OTL: Adagio pro processione in D
!!!PDT:
!!!AGN:
!!!SMS-siglum: PL-CZ
!!!SMS-shelfmark: I-171
!!!SMS-shelfwork: 002 W
!!!SMS-variant:
!!!SMS-altvar:
!!!NIFC-rismSourceID: 300033509
!!!NIFC-islandoraID: pl-cz:1008
!!!URL-pdf-islandora: https://repozytorium.nifc.pl/islandora/object/pl-cz%3A1008/datastream/PDF/view
!!!URL-scan: https://polish.musicsources.pl/pl/lokalizacje/galeria/rekopisy/575 @EN{Scan on Polish Music Herritage in Open Access Website} @PL{Skany w portalu Dziedzictwo Muzyki Polskiej w otwartym dostępie}
!!!ONB-nifc: UWAGA: w zbiorze 2 Adagio: 1. in F, 2. in D. Partia vl 1 znajduje się dopiero na f. 6R
!!!AIN: 1 cbass 2 clrno 2 cor 2 oboe 1 organ 2 violn
!!!key: D
**kern	**fba	**dynam	**kern	**dynam	**kern	**dynam	**kern	**dynam	**kern	**kern	**dynam	**kern	**dynam	**kern	**kern	**dynam	**kern	**dynam
*part10	*part10	*part10	*part9	*part9	*part8	*part8	*part7	*part7	*part6	*part5	*part5	*part4	*part4	*part3	*part2	*part2	*part1	*part1
*staff10	*	*	*staff9	*	*staff8	*	*staff7	*	*staff6	*staff5	*	*staff4	*	*staff3	*staff2	*	*staff1	*
*I"Organo.	*	*	*I"Baſso.	*	*I"Violino Secondo.	*	*I"Violino Primo.	*	*I"Corno Secondo in D	*I"Cornu Primo ex D	*	*I"Clarino Secondo ex D	*	*I"Clarino Primo ex D	*I"Hoboe 2do.	*	*I"Hoboe 1mo.	*
*I'org	*	*	*I'b	*	*I'vl II	*	*I'vl I	*	*I'cor II	*I'cor I	*	*I'clno II	*	*I'clno I	*I'ob II	*	*I'ob I	*
*ICklav	*	*	*ICstr	*	*ICstr	*	*ICstr	*	*ICbras	*ICbras	*	*ICbras	*	*ICbras	*ICww	*	*ICww	*
*Iorgan	*	*	*Icbass	*	*Ivioln	*	*Ivioln	*	*Icor	*Icor	*	*Iclrno	*	*Iclrno	*Ioboe	*	*Ioboe	*
*clefF4	*	*	*clefF4	*	*clefG2	*	*clefG2	*	*clefG2	*clefG2	*	*clefG2	*	*clefG2	*clefG2	*	*clefG2	*
*D:	*	*	*D:	*	*D:	*	*D:	*	*D:	*D:	*	*D:	*	*D:	*D:	*	*D:	*
*	*	*	*ITrd0c0	*	*	*	*	*	*ITrd6c10	*ITrd6c10	*	*ITrd-1c-2	*	*ITrd-1c-2	*	*	*	*
*k[f#c#]	*	*	*k[f#c#]	*	*k[f#c#]	*	*k[f#c#]	*	*k[f#c#]	*k[f#c#]	*	*k[f#c#]	*	*k[f#c#]	*k[f#c#]	*	*k[f#c#]	*
*M3/4	*	*	*M3/4	*	*M3/4	*	*M3/4	*	*M3/4	*M3/4	*	*M3/4	*	*M3/4	*M3/4	*	*M3/4	*
=1	=1	=1	=1	=1	=1	=1	=1	=1	=1	=1	=1	=1	=1	=1	=1	=1	=1	=1
*2\right	*	*	*2\right	*	*2\right	*	*2\right	*	*	*	*	*2\right	*	*	*2\right	*	*2\right	*
!	!	!	!	!	!	!	!LO:TX:b:B:t=Adagio.	!	!	!	!	!	!	!	!LO:TX:a:B:t=Adagio. 2do	!	!LO:TX:a:B:t=Adagio. 2do	!
!LO:TX:a:B:t=Adagio. 2.	!	!	!LO:TX:a:B:t=Adagio. 2.	!	!LO:TX:a:B:t=Adagio. 2	!	!LO:TX:a:t=t.	!	!LO:TX:t=P:problem=brakująca partia	!LO:TX:t=P:problem=połowa partii niewidoczna	!	!LO:TX:a:B:t=Adagio. 2.	!	!LO:TX:t=P:problem=brakująca partia	!	!	!LO:TX:a:B:t=Adagio	!
4D/	.	.	4D/	.	4A/	.	8.f#/L	.	2.ryy	2.ryy	.	4dd\	.	2.ryy	2ff#\	.	[2.aa\	.
.	.	.	.	.	.	.	32e/LL	.	.	.	.	.	.	.	.	.	.	.
.	.	.	.	.	.	.	32d/JJJ	.	.	.	.	.	.	.	.	.	.	.
!	!	!	!	!	!	!	!LO:TX:a:t=2 do.	!	!	!	!	!	!	!	!	!	!	!
8r	.	.	8r	.	8r	.	8a`/L	.	.	.	.	4r	.	.	.	.	.	.
8D/L	.	.	8D/L	.	8f#/L	.	8a`/	.	.	.	.	.	.	.	.	.	.	.
8C#/	6	.	8C#/	.	8e/	.	8a`/	.	.	.	.	4a/	.	.	4ee\	.	.	.
8AA/J	.	.	8AA/J	.	8c#/J	.	8a`/J	.	.	.	.	.	.	.	.	.	.	.
=2	=2	=2	=2	=2	=2	=2	=2	=2	=2	=2	=2	=2	=2	=2	=2	=2	=2	=2
!	!	!	!	!	!	!	!LO:TX:a:t=t.	!	!	!	!	!	!	!	!	!	!	!
4D\	.	.	4D\	.	4A/	.	8.f#/L	.	2.ryy	2.ryy	.	4dd\	.	2.ryy	2.ff#\	.	2.aa\]	.
.	.	.	.	.	.	.	32e/LL	.	.	.	.	.	.	.	.	.	.	.
.	.	.	.	.	.	.	32d/JJJ	.	.	.	.	.	.	.	.	.	.	.
8r	.	.	8r	.	8r	.	8dd`\L	.	.	.	.	4r	.	.	.	.	.	.
8E\L	.	.	8E\L	.	8g/L	.	8dd`\	.	.	.	.	.	.	.	.	.	.	.
8F#\	6	.	8F#\	.	8a/	.	8dd`\	.	.	.	.	4dd\	.	.	.	.	.	.
8D\J	.	.	8D\J	.	8f#/J	.	8dd`\J	.	.	.	.	.	.	.	.	.	.	.
=3	=3	=3	=3	=3	=3	=3	=3	=3	=3	=3	=3	=3	=3	=3	=3	=3	=3	=3
!	!	!	!	!	!	!	!LO:TX:a:t=t.	!	!	!	!	!	!	!	!	!	!	!
.	.	.	.	.	.	.	8qqdd/	.	.	.	.	.	.	.	.	.	.	.
4A\	7	.	4A\	.	4e/	.	8.cc#\L	.	2.ryy	2.ryy	.	2a/	.	2.ryy	2ee\	.	2gg\	.
.	.	.	.	.	.	.	32b\LL	.	.	.	.	.	.	.	.	.	.	.
.	.	.	.	.	.	.	32a\JJJ	.	.	.	.	.	.	.	.	.	.	.
8r	.	.	8r	.	8r	.	8gg`\L	.	.	.	.	.	.	.	.	.	.	.
8B\L	.	.	8B\L	.	8dd\L	.	8gg`\	.	.	.	.	.	.	.	.	.	.	.
8c#\	6 5	.	8c#\	.	8ee\	.	8gg`\	.	.	.	.	4ee\	.	.	4ee\	.	4gg\	.
8A\J	.	.	8A\J	.	8cc#\J	.	8gg`\J	.	.	.	.	.	.	.	.	.	.	.
=4	=4	=4	=4	=4	=4	=4	=4	=4	=4	=4	=4	=4	=4	=4	=4	=4	=4	=4
!	!	!	!	!	!LO:TX:a:t=t.	!	!LO:TX:a:t=t.	!	!	!	!	!	!	!	!	!	!	!
.	.	.	.	.	.	.	8qqgg/	.	.	.	.	.	.	.	.	.	.	.
4d\	.	.	4d\	.	8.dd\L	.	8.ff#\L	.	2.ryy	2.ryy	.	2ff#\	.	2.ryy	2dd\	.	2ff#\	.
.	.	.	.	.	32cc#\LL	.	32ee\LL	.	.	.	.	.	.	.	.	.	.	.
.	.	.	.	.	32b\JJJ	.	32dd\JJJ	.	.	.	.	.	.	.	.	.	.	.
4r	.	.	4r	.	8a`/L	.	8cc#`\L	.	.	.	.	.	.	.	.	.	.	.
.	.	.	.	.	8g`/	.	8b`\	.	.	.	.	.	.	.	.	.	.	.
4r	.	.	4r	.	8f#`/	.	8a`\	.	.	.	.	4r	.	.	4r	.	4r	.
.	.	.	.	.	8e`/J	.	8g`\J	.	.	.	.	.	.	.	.	.	.	.
=5	=5	=5	=5	=5	=5	=5	=5	=5	=5	=5	=5	=5	=5	=5	=5	=5	=5	=5
!	!	!LO:DY:t=pia&colon;	!	!LO:DY:t=pia&colon;	!	!LO:DY:t=pia&colon;	!	!LO:DY:t=pia&colon;	!	!	!	!	!	!	!LO:TX:a:t=3.	!	!LO:TX:a:t=3.	!
4D/	.	p	4D/	p	8d/L	p	8f#/L	p	2.ryy	2.ryy	.	4d/	.	2.ryy	2.r	.	2.r	.
.	.	.	.	.	8e/	.	8g/	.	.	.	.	.	.	.	.	.	.	.
4r	.	.	4r	.	8f#/	.	8a/	.	.	.	.	4r	.	.	.	.	.	.
.	.	.	.	.	8e/	.	8g/	.	.	.	.	.	.	.	.	.	.	.
4r	.	.	4r	.	8f#/	.	8a/	.	.	.	.	4d/	.	.	.	.	.	.
.	.	.	.	.	8d/J	.	8f#/J	.	.	.	.	.	.	.	.	.	.	.
=6	=6	=6	=6	=6	=6	=6	=6	=6	=6	=6	=6	=6	=6	=6	=6	=6	=6	=6
4AA/	7	.	4AA/	.	8A/L	.	8c#/L	.	2.ryy	4ryy	.	4a/	.	2.ryy	2.r	.	2.r	.
.	.	.	.	.	8B/	.	8d/	.	.	.	.	.	.	.	.	.	.	.
4r	.	.	4r	.	8c#/	.	8e/	.	.	16ryy	.	4r	.	.	.	.	.	.
.	.	.	.	.	.	.	.	.	.	16e\KL	.	.	.	.	.	.	.	.
.	.	.	.	.	8B/	.	8d/	.	.	8.g\J	.	.	.	.	.	.	.	.
4r	.	.	4r	.	8c#/	.	8e/	.	.	.	.	4a/	.	.	.	.	.	.
.	.	.	.	.	.	.	.	.	.	16e\LL	.	.	.	.	.	.	.	.
.	.	.	.	.	8A/J	.	8c#/J	.	.	16a\	.	.	.	.	.	.	.	.
.	.	.	.	.	.	.	.	.	.	16g\JJ	.	.	.	.	.	.	.	.
!	!	!	!	!	!	!	!LO:LB:g=original	!	!	!	!	!	!	!	!	!	!	!
=7	=7	=7	=7	=7	=7	=7	=7	=7	=7	=7	=7	=7	=7	=7	=7	=7	=7	=7
8D\L	.	.	8D\L	.	4d/	.	4d/	.	2.ryy	16f#\LL	.	4d/	.	2.ryy	2.r	.	2.r	.
.	.	.	.	.	.	.	.	.	.	16a\J	.	.	.	.	.	.	.	.
8E\J	.	.	8E\J	.	.	.	.	.	.	8.dd\J	.	.	.	.	.	.	.	.
4F#\	6	.	4F#\	.	4r	.	4r	.	.	.	.	4r	.	.	.	.	.	.
.	.	.	.	.	.	.	.	.	.	16cc#\LL	.	.	.	.	.	.	.	.
.	.	.	.	.	.	.	.	.	.	16b\	.	.	.	.	.	.	.	.
.	.	.	.	.	.	.	.	.	.	16a\JJ	.	.	.	.	.	.	.	.
8C#\L	6 5	.	8C#\L	.	4r	.	4r	.	.	8g\L	.	8r	.	.	.	.	.	.
8D\J	.	.	8D\J	.	.	.	.	.	.	8f#\J	.	8d/	.	.	.	.	.	.
=8	=8	=8	=8	=8	=8	=8	=8	=8	=8	=8	=8	=8	=8	=8	=8	=8	=8	=8
4AA/	.	.	4AA/	.	8r	.	8r	.	2.ryy	4A/	.	4a/	.	2.ryy	8e/	.	8cc#\	.
.	.	.	.	.	8A/L	.	8A/L	.	.	.	.	.	.	.	4e/	.	4cc#\	.
4r	.	.	4r	.	8A/	.	8A/	.	.	4r	.	4r	.	.	.	.	.	.
.	.	.	.	.	8A/J	.	8A/J	.	.	.	.	.	.	.	16f#/LL	.	16dd\LL	.
.	.	.	.	.	.	.	.	.	.	.	.	.	.	.	16g/JJ	.	16ee\JJ	.
!	!	!	!	!	!LO:TX:a:t=t	!	!LO:TX:a:t=t	!	!	!	!	!	!	!	!	!	!	!
4r	.	.	4r	.	4A/	.	4A/	.	.	4r	.	4r	.	.	8f#/L	.	8dd\L	.
.	.	.	.	.	.	.	.	.	.	.	.	.	.	.	8f#/J	.	8dd\J	.
=9	=9	=9	=9	=9	=9	=9	=9	=9	=9	=9	=9	=9	=9	=9	=9	=9	=9	=9
4AA/	.	.	4AA/	.	8r	.	8r	.	2.ryy	4A/	.	4a/	.	2.ryy	8e/	.	8cc#\	.
.	.	.	.	.	8A/L	.	8A/L	.	.	.	.	.	.	.	4cc#\	.	4ee\	.
4r	.	.	4r	.	8A/	.	8A/	.	.	4r	.	4r	.	.	.	.	.	.
.	.	.	.	.	8A/J	.	8A/J	.	.	.	.	.	.	.	16dd\LL	.	16ff#\LL	.
.	.	.	.	.	.	.	.	.	.	.	.	.	.	.	16ee\JJ	.	16gg\JJ	.
!	!	!	!	!	!LO:TX:a:t=t	!	!LO:TX:a:t=t	!	!	!	!	!	!	!	!	!	!	!
4r	.	.	4r	.	4A/	.	4A/	.	.	4r	.	4r	.	.	8dd\L	.	8ff#\L	.
.	.	.	.	.	.	.	.	.	.	.	.	.	.	.	8dd\J	.	8ff#\J	.
=10	=10	=10	=10	=10	=10	=10	=10	=10	=10	=10	=10	=10	=10	=10	=10	=10	=10	=10
4AA/	.	.	4AA/	.	8r	.	8r	.	2.ryy	4A/	.	4a/	.	2.ryy	8cc#\	.	8ee\	.
.	.	.	.	.	8A/L	.	8A/L	.	.	.	.	.	.	.	4ee\	.	4ccc#\	.
4r	.	.	4r	.	8A/	.	8A/	.	.	4r	.	4r	.	.	.	.	.	.
.	.	.	.	.	8A/J	.	8A/J	.	.	.	.	.	.	.	16ff#\LL	.	16ddd\LL	.
.	.	.	.	.	.	.	.	.	.	.	.	.	.	.	16gg\JJ	.	16eee\JJ	.
!	!	!	!	!	!LO:TX:a:t=t	!	!LO:TX:a:t=t	!	!	!	!	!	!	!	!	!	!	!
4r	.	.	4r	.	4A/	.	4A/	.	.	4r	.	4r	.	.	8ff#\L	.	8ddd\L	.
.	.	.	.	.	.	.	.	.	.	.	.	.	.	.	8ff#\J	.	8ddd\J	.
!LO:LB:g=original	!	!	!	!	!LO:LB:g=original	!	!	!	!	!	!	!	!	!	!	!	!	!
=11	=11	=11	=11	=11	=11	=11	=11	=11	=11	=11	=11	=11	=11	=11	=11	=11	=11	=11
.	.	.	.	.	.	.	.	.	.	.	.	.	.	.	8qqgg/	.	.	.
4AA/	6 4	.	4AA/	.	4r	.	4r	.	2.ryy	4A/	.	4a/	.	2.ryy	4ff#\	.	4ddd\	.
!	!	!LO:DY:t=for&colon;	!	!LO:DY:t=for	!	!	!	!	!	!	!	!	!	!	!	!	!	!
8A\L	5 3	f	8A`\L	f	8r	.	8r	.	.	4r	.	4r	.	.	4ee\	.	4ccc#\	.
!	!	!	!	!	!	!LO:DY:t=for	!	!LO:DY:t=for	!	!	!	!	!	!	!	!	!	!
8G\	.	.	8G`\	.	(16a\LL	f	(16cc#\LL	f	.	.	.	.	.	.	.	.	.	.
.	.	.	.	.	16b\JJ)	.	16dd\JJ)	.	.	.	.	.	.	.	.	.	.	.
8F#\	.	.	8F#`\	.	(16b\LL	.	(16dd\LL	.	.	4r	.	4r	.	.	4r	.	4r	.
.	.	.	.	.	16cc#\)	.	16ee\)	.	.	.	.	.	.	.	.	.	.	.
8E\J	.	.	8E`\J	.	(16cc#\	.	(16ee\	.	.	.	.	.	.	.	.	.	.	.
.	.	.	.	.	16dd\JJ)	.	16ff#\JJ)	.	.	.	.	.	.	.	.	.	.	.
!	!	!	!LO:LB:g=original	!	!	!	!	!	!	!	!	!	!	!	!	!	!	!
=12	=12	=12	=12	=12	=12	=12	=12	=12	=12	=12	=12	=12	=12	=12	=12	=12	=12	=12
!	!	!	!	!	!	!	!	!	!	!	!	!LO:TX:a:t=1.	!	!	!LO:TX:a:t=1	!	!LO:TX:a:t=1.	!
4D\	.	.	4D\	.	4dd\	.	(16ff#\LL	.	2.ryy	2.ryy	.	2.r	.	2.ryy	2.r	.	2.r	.
.	.	.	.	.	.	.	16ee\)	.	.	.	.	.	.	.	.	.	.	.
.	.	.	.	.	.	.	(16ee\	.	.	.	.	.	.	.	.	.	.	.
.	.	.	.	.	.	.	16dd\JJ)	.	.	.	.	.	.	.	.	.	.	.
4r	.	.	4r	.	(16ff#\LL	.	(16dd\LL	.	.	.	.	.	.	.	.	.	.	.
.	.	.	.	.	16ee\)	.	16cc#\)	.	.	.	.	.	.	.	.	.	.	.
.	.	.	.	.	(16ee\	.	(16cc#\	.	.	.	.	.	.	.	.	.	.	.
.	.	.	.	.	16dd\JJ)	.	16b\JJ)	.	.	.	.	.	.	.	.	.	.	.
4r	.	.	4r	.	(16dd\LL	.	(16b/LL	.	.	.	.	.	.	.	.	.	.	.
.	.	.	.	.	16cc#\)	.	16a/)	.	.	.	.	.	.	.	.	.	.	.
.	.	.	.	.	(16cc#\	.	(16a/	.	.	.	.	.	.	.	.	.	.	.
.	.	.	.	.	16b\JJ)	.	16g#X/JJ)	.	.	.	.	.	.	.	.	.	.	.
=13	=13	=13	=13	=13	=13	=13	=13	=13	=13	=13	=13	=13	=13	=13	=13	=13	=13	=13
8E\L	#	.	8E\L	.	(16b/LL	.	(16g#X/LL	.	2.ryy	2.ryy	.	[2.ee\	.	2.ryy	4.b\	.	4.gg#X\	.
.	.	.	.	.	16a/	.	16a/	.	.	.	.	.	.	.	.	.	.	.
8E\	.	.	8E\	.	16g#X/)	.	16b/	.	.	.	.	.	.	.	.	.	.	.
.	.	.	.	.	16a/JJ	.	16cc#/JJ)	.	.	.	.	.	.	.	.	.	.	.
8E\	.	.	8E\	.	8b/	.	8dd\	.	.	.	.	.	.	.	.	.	.	.
8E\	.	.	8E\	.	4a/	.	4cc#\	.	.	.	.	.	.	.	8cc#\L	.	8aa\L	.
8E\	.	.	8E\	.	.	.	.	.	.	.	.	.	.	.	8cc#\	.	8aa\	.
8E\J	.	.	8E\J	.	8g#X/	.	8b\	.	.	.	.	.	.	.	8dd\J	.	8bb\J	.
=14	=14	=14	=14	=14	=14	=14	=14	=14	=14	=14	=14	=14	=14	=14	=14	=14	=14	=14
.	.	.	.	.	.	.	.	.	.	.	.	.	.	.	8qqdd/	.	.	.
8E\L	6 4	.	8E\L	.	8r	.	(16a\LL	.	2.ryy	2.ryy	.	2.ee\_	.	2.ryy	4.cc#\	.	4.aa\	.
.	.	.	.	.	.	.	16b\	.	.	.	.	.	.	.	.	.	.	.
8E\	.	.	8E\	.	(16a/LL	.	16cc#\	.	.	.	.	.	.	.	.	.	.	.
.	.	.	.	.	16b/JJ)	.	16dd\JJ)	.	.	.	.	.	.	.	.	.	.	.
8E\	.	.	8E\	.	8cc#\	.	8ee\	.	.	.	.	.	.	.	.	.	.	.
8E\	.	.	8E\	.	4b/	.	4dd\	.	.	.	.	.	.	.	8dd\L	.	8bb\L	.
8E\	.	.	8E\	.	.	.	.	.	.	.	.	.	.	.	8dd\	.	8bb\	.
8E\J	.	.	8E\J	.	8a/	.	8cc#\	.	.	.	.	.	.	.	8ee\J	.	8ccc#\J	.
!	!	!	!	!	!	!	!LO:LB:g=original	!	!	!	!	!	!	!	!	!	!	!
=15	=15	=15	=15	=15	=15	=15	=15	=15	=15	=15	=15	=15	=15	=15	=15	=15	=15	=15
.	.	.	.	.	.	.	.	.	.	.	.	.	.	.	8qqee/	.	.	.
8E\L	7 #	.	8E\L	.	8r	.	(16b\LL	.	2.ryy	2.ryy	.	2.ee\]	.	2.ryy	4.dd\	.	4.bb\	.
.	.	.	.	.	.	.	16cc#\	.	.	.	.	.	.	.	.	.	.	.
8E\	.	.	8E\	.	(16b\LL	.	16dd\	.	.	.	.	.	.	.	.	.	.	.
.	.	.	.	.	16cc#\JJ)	.	16ee\JJ)	.	.	.	.	.	.	.	.	.	.	.
8E\	.	.	8E\	.	8dd\	.	8ff#\	.	.	.	.	.	.	.	.	.	.	.
8E\	.	.	8E\	.	4cc#\	.	4ee\	.	.	.	.	.	.	.	8ee\L	.	8ccc#\L	.
8E\	.	.	8E\	.	.	.	.	.	.	.	.	.	.	.	8ee\	.	8ccc#\	.
8E\J	.	.	8E\J	.	8b\	.	8dd\	.	.	.	.	.	.	.	8ff#\J	.	8ddd\J	.
!	!	!	!	!	!	!	!	!	!	!	!	!LO:LB:g=original	!	!	!LO:LB:g=original	!	!LO:LB:g=original	!
=16	=16	=16	=16	=16	=16	=16	=16	=16	=16	=16	=16	=16	=16	=16	=16	=16	=16	=16
8AA/L	.	.	8AA/L	.	4a/	.	8cc#\L	.	2.ryy	2.ryy	.	4a/	.	2.ryy	4ee\	.	4ccc#\	.
8C#/J	.	.	8C#/J	.	.	.	8a\J	.	.	.	.	.	.	.	.	.	.	.
!LO:TX:t=P:problem=mixed beam	!	!	!LO:TX:t=P:problem=mixed beam	!	!LO:TX:a:t=t.	!	!LO:TX:a:t=t	!	!	!	!	!	!	!	!LO:TX:a:t=t.	!	!LO:TX:a:t=t.	!
.	.	.	.	.	.	.	8qqa/	.	.	.	.	.	.	.	.	.	.	.
8E\L	#	.	8E\L	.	2g#X/	.	2b\	.	.	.	.	2ee\	.	.	2gg#X\	.	2bb\	.
8D\	.	.	8D\	.	.	.	.	.	.	.	.	.	.	.	.	.	.	.
8E\	.	.	8E\	.	.	.	.	.	.	.	.	.	.	.	.	.	.	.
8EE/J	.	.	8EE/J	.	.	.	.	.	.	.	.	.	.	.	.	.	.	.
=17	=17	=17	=17	=17	=17	=17	=17	=17	=17	=17	=17	=17	=17	=17	=17	=17	=17	=17
!	!	!	!	!	!LO:TX:t=P:problem=mixed beam	!	!	!	!	!	!	!	!	!	!	!	!	!
4AA/	.	.	4AA/	.	8aa\L	.	8aa\L	.	2.ryy	2.ryy	.	4a/	.	2.ryy	16aa\LL	.	16aa\LL	.
.	.	.	.	.	.	.	.	.	.	.	.	.	.	.	16a\	.	16cc#\	.
.	.	.	.	.	8a`/	.	8a`/	.	.	.	.	.	.	.	16b\	.	16dd\	.
.	.	.	.	.	.	.	.	.	.	.	.	.	.	.	16a\JJ	.	16cc#\JJ	.
4r	.	.	4r	.	8a`/	.	8a`/	.	.	.	.	4r	.	.	[2a/	.	[2cc#\	.
.	.	.	.	.	8a`/	.	8a`/J	.	.	.	.	.	.	.	.	.	.	.
4G#X\	4 2	.	4G#X\	.	8g#X`/	.	8g#X/L	.	.	.	.	4r	.	.	.	.	.	.
.	.	.	.	.	8a/J	.	8a/J	.	.	.	.	.	.	.	.	.	.	.
=18	=18	=18	=18	=18	=18	=18	=18	=18	=18	=18	=18	=18	=18	=18	=18	=18	=18	=18
!	!	!	!	!	!LO:TX:t=P:problem=mixed beam	!	!	!	!	!	!	!	!	!	!	!	!	!
4F#\	5	.	4F#\	.	8aa\L	.	8aa\L	.	2.ryy	2.ryy	.	4a/	.	2.ryy	16a/LL]	.	16cc#\LL]	.
.	.	.	.	.	.	.	.	.	.	.	.	.	.	.	16a/	.	16cc#\	.
.	.	.	.	.	8a`/	.	8a`/	.	.	.	.	.	.	.	16b/	.	16dd\	.
.	.	.	.	.	.	.	.	.	.	.	.	.	.	.	16a/JJ	.	16cc#\JJ	.
!	!	!	!	!	!	!	!	!	!	!	!	!	!	!	!LO:TX:a:t=t.	!	!LO:TX:a:t=t.	!
4r	.	.	4r	.	8a`/	.	8a`/	.	.	.	.	4r	.	.	2a/	.	2cc#\	.
.	.	.	.	.	8a`/	.	8a`/J	.	.	.	.	.	.	.	.	.	.	.
4E\	6 4	.	4E\	.	8e/	.	8e/L	.	.	.	.	4r	.	.	.	.	.	.
.	.	.	.	.	8a/J	.	8a/J	.	.	.	.	.	.	.	.	.	.	.
=19	=19	=19	=19	=19	=19	=19	=19	=19	=19	=19	=19	=19	=19	=19	=19	=19	=19	=19
!	!	!	!	!	!	!	!	!	!	!	!	!LO:TX:a:t=1.	!	!	!	!	!	!
2D\	6	.	2D\	.	8d/L	.	8d/L	.	2.ryy	2.ryy	.	2.r	.	2.ryy	(16b\LL	.	(16dd\LL	.
.	.	.	.	.	.	.	.	.	.	.	.	.	.	.	16cc#\JJ	.	16ee\JJ	.
.	.	.	.	.	8dd\J	.	8ff#\J	.	.	.	.	.	.	.	4dd\)	.	4ff#\)	.
.	.	.	.	.	(4dd\	.	(4ff#\	.	.	.	.	.	.	.	.	.	.	.
.	.	.	.	.	.	.	.	.	.	.	.	.	.	.	8dd\L	.	8ff#\L	.
4E\	#	.	4E\	.	8cc#\L)	.	8ee\L)	.	.	.	.	.	.	.	8cc#\	.	8ee\	.
.	.	.	.	.	8b`\J	.	8g#X`\J	.	.	.	.	.	.	.	8b\J	.	8dd\J	.
!	!	!	!	!	!LO:LB:g=original	!	!	!	!	!	!	!	!	!	!	!	!	!
=20	=20	=20	=20	=20	=20	=20	=20	=20	=20	=20	=20	=20	=20	=20	=20	=20	=20	=20
!	!	!	!	!	!	!	!	!	!	!	!	!	!	!	!	!LO:DY:t=pia	!	!
!	!	!	!	!	!	!LO:DY:t=pia&colon;	!	!LO:DY:t=pia&colon;	!	!	!	!	!	!	!	!	!	!LO:DY:t=pia&colon;
!	!	!LO:DY:t=pia&colon;	!	!LO:DY:t=pia&colon;	!	!	!	!	!	!	!	!	!LO:DY:t=pia&colon;	!	!	!	!	!
4A\	.	p	4A\	p	8aa\L	p	8aa\L	p	2.ryy	2.ryy	.	4a/	p	2.ryy	16a/LL	p	16cc#\LL	p
.	.	.	.	.	.	.	.	.	.	.	.	.	.	.	16a/	.	16cc#\	.
.	.	.	.	.	8a`/	.	8a`/	.	.	.	.	.	.	.	16b/	.	16dd\	.
.	.	.	.	.	.	.	.	.	.	.	.	.	.	.	16a/JJ	.	16cc#\JJ	.
!	!	!	!	!	!	!	!	!	!	!	!	!	!	!	!LO:TX:a:t=t.	!	!LO:TX:a:t=t.	!
4r	.	.	4r	.	8a`/	.	8a`/	.	.	.	.	4r	.	.	2a/	.	[2cc#\	.
.	.	.	.	.	8a`/J	.	8a`/J	.	.	.	.	.	.	.	.	.	.	.
4G#X\	4 2	.	4G#X\	.	8g#X/L	.	8g#X/L	.	.	.	.	4r	.	.	.	.	.	.
.	.	.	.	.	8a/J	.	8a/J	.	.	.	.	.	.	.	.	.	.	.
=21	=21	=21	=21	=21	=21	=21	=21	=21	=21	=21	=21	=21	=21	=21	=21	=21	=21	=21
4F#\	5	.	4F#\	.	8aa\L	.	8aa\L	.	2.ryy	2.ryy	.	4a/	.	2.ryy	16a/LL	.	16cc#\LL]	.
.	.	.	.	.	.	.	.	.	.	.	.	.	.	.	16a/	.	16cc#\	.
.	.	.	.	.	8a`/	.	8a`/	.	.	.	.	.	.	.	16b/	.	16dd\	.
.	.	.	.	.	.	.	.	.	.	.	.	.	.	.	16a/JJ	.	16cc#\JJ	.
!	!	!	!	!	!	!	!	!	!	!	!	!	!	!	!LO:TX:a:t=t.	!	!LO:TX:a:t=t.	!
4r	.	.	4r	.	8a`/	.	8a`/	.	.	.	.	4r	.	.	2a/	.	2cc#\	.
.	.	.	.	.	8a`/J	.	8a`/J	.	.	.	.	.	.	.	.	.	.	.
4E\	6 4	.	4E\	.	8e`/L	.	8e`/L	.	.	.	.	4r	.	.	.	.	.	.
.	.	.	.	.	8a`/J	.	8a`/J	.	.	.	.	.	.	.	.	.	.	.
=22	=22	=22	=22	=22	=22	=22	=22	=22	=22	=22	=22	=22	=22	=22	=22	=22	=22	=22
!	!	!	!	!	!	!	!	!	!	!LO:TX:a:t=3.	!	!LO:TX:a:t=3.	!	!	!	!	!	!
!	!	!LO:DY:t=for&colon;	!	!LO:DY:t=for	!	!	!	!LO:DY:t=for	!	!	!	!	!	!	!	!	!	!
2D\	6	f	2D\	f	8d/L	.	8d/L	f	2.ryy	2.r	.	2.r	.	2.ryy	(16b\LL	.	(16dd\LL	.
.	.	.	.	.	.	.	.	.	.	.	.	.	.	.	16cc#\JJ	.	16ee\JJ	.
!	!	!	!	!	!	!LO:DY:t=for	!	!	!	!	!	!	!	!	!	!	!	!
.	.	.	.	.	8dd\J	f	8ff#\J	.	.	.	.	.	.	.	4dd\)	.	4ff#\)	.
.	.	.	.	.	(4dd\	.	(4ff#\	.	.	.	.	.	.	.	.	.	.	.
.	.	.	.	.	.	.	.	.	.	.	.	.	.	.	8dd\L	.	8ff#\L	.
4E\	#	.	4E\	.	8cc#\L)	.	8ee\L)	.	.	.	.	.	.	.	8cc#\	.	8ee\	.
.	.	.	.	.	8b`\J	.	8g#X`\J	.	.	.	.	.	.	.	8b\J	.	8dd\J	.
=23	=23	=23	=23	=23	=23	=23	=23	=23	=23	=23	=23	=23	=23	=23	=23	=23	=23	=23
!LO:TX:t=P:problem=mixed beam	!	!	!	!	!	!	!	!	!	!	!	!	!	!	!	!	!	!
!	!	!LO:DY:t=pia&colon;	!	!LO:DY:t=pia&colon;	!	!LO:DY:t=pi	!	!LO:DY:t=p&colon;	!	!	!	!	!	!	!	!	!	!LO:DY:t=for
8A\L	.	p	8A\L	p	8a/L	p	8a/L	p	2.ryy	2.r	.	2.r	.	2.ryy	4a/	.	(32cc#\LLL	f
.	.	.	.	.	.	.	.	.	.	.	.	.	.	.	.	.	32b\JJ	.
.	.	.	.	.	.	.	.	.	.	.	.	.	.	.	.	.	8.a\J)	.
8C#\	.	.	8C#\J	.	8c#/	.	8c#/	.	.	.	.	.	.	.	.	.	.	.
!	!	!	!	!	!	!	!	!	!	!	!	!	!	!	!LO:TX:a:t=t.	!	!LO:TX:a:t=t.	!
.	.	.	.	.	.	.	.	.	.	.	.	.	.	.	.	.	8qqa/	.
8D\	6 5	.	8D/L	.	8d/	.	8d/	.	.	.	.	.	.	.	2g#X/	.	2b\	.
8BB\	.	.	8BB/J	.	8B/J	.	8B/J	.	.	.	.	.	.	.	.	.	.	.
!	!	!	!LO:TX:t=P:problem=mixed beam	!	!	!	!	!	!	!	!	!	!	!	!	!	!	!
8E\	#	.	8E\L	.	8e/L	.	8e/L	.	.	.	.	.	.	.	.	.	.	.
8EE/J	.	.	8EE/J	.	8e/J	.	8e/J	.	.	.	.	.	.	.	.	.	.	.
!LO:LB:g=original	!	!	!LO:LB:g=original	!	!	!	!	!	!	!	!	!	!	!	!	!	!	!
=24	=24	=24	=24	=24	=24	=24	=24	=24	=24	=24	=24	=24	=24	=24	=24	=24	=24	=24
!	!	!	!	!	!	!	!	!	!	!	!	!	!	!	!	!	!	!
8AA;</L	.	.	8AA;</L	.	2A/	.	2A/	.	2.ryy	2.r	.	2.r	.	2.ryy	2.a/	.	2.a/	.
8E\	.	.	8E\	.	.	.	.	.	.	.	.	.	.	.	.	.	.	.
8A`\	.	.	8A`\	.	.	.	.	.	.	.	.	.	.	.	.	.	.	.
8G`\	.	.	8G`\	.	.	.	.	.	.	.	.	.	.	.	.	.	.	.
8F#`\	.	.	8F#`\	.	4r	.	4r	.	.	.	.	.	.	.	.	.	.	.
8E`\J	.	.	8E`\J	.	.	.	.	.	.	.	.	.	.	.	.	.	.	.
=25:|!|:	=25:|!|:	=25:|!|:	=25:|!|:	=25:|!|:	=25:|!|:	=25:|!|:	=25:|!|:	=25:|!|:	=25:|!|:	=25:|!|:	=25:|!|:	=25:|!|:	=25:|!|:	=25:|!|:	=25:|!|:	=25:|!|:	=25:|!|:	=25:|!|:
!	!	!	!	!	!	!	!LO:TX:a:t=t	!	!	!	!	!	!	!	!LO:TX:a:t=4.	!	!LO:TX:a:t=4.	!
!	!	!	!	!	!	!LO:DY:t=for	!	!LO:DY:t=for	!	!	!	!	!	!	!	!	!	!
!	!	!	!	!	!	!	!	!	!	!	!	!	!LO:DY:t=for&colon;	!	!	!	!	!
4A\	.	.	4A\	.	4e/	f	8.cc#\L	f	2.ryy	4e\	f	4a/	f	2.ryy	2.r	.	2.r	.
.	.	.	.	.	.	.	32b\LL	.	.	.	.	.	.	.	.	.	.	.
.	.	.	.	.	.	.	32a\JJJ	.	.	.	.	.	.	.	.	.	.	.
8r	.	.	8r	.	8r	.	8ee`\L	.	.	4e\	.	4ee\	.	.	.	.	.	.
8A\L	.	.	8A\L	.	8cc#\L	.	8ee`\	.	.	.	.	.	.	.	.	.	.	.
8G#X\	6	.	8G#X\	.	8b\	.	8ee`\	.	.	4e\	.	4ee\	.	.	.	.	.	.
8E\J	.	.	8E\J	.	8g#X\J	.	8ee`\J	.	.	.	.	.	.	.	.	.	.	.
=26	=26	=26	=26	=26	=26	=26	=26	=26	=26	=26	=26	=26	=26	=26	=26	=26	=26	=26
!	!	!	!	!	!	!	!LO:TX:a:t=t.	!	!	!	!	!	!	!	!	!	!	!
4A\	.	.	4A\	.	4e/	.	8.cc#\L	.	2.ryy	2e\	.	2a/	.	2.ryy	2.r	.	2.r	.
.	.	.	.	.	.	.	32b\LL	.	.	.	.	.	.	.	.	.	.	.
.	.	.	.	.	.	.	32a\JJJ	.	.	.	.	.	.	.	.	.	.	.
8r	.	.	8r	.	8r	.	8aa`\L	.	.	.	.	.	.	.	.	.	.	.
8B\L	.	.	8B\L	.	8dd\L	.	8aa`\	.	.	.	.	.	.	.	.	.	.	.
8c#\	6	.	8c#\	.	8ee\	.	8aa`\	.	.	4r	.	4r	.	.	.	.	.	.
8A\J	.	.	8A\J	.	8cc#\J	.	8aa`\J	.	.	.	.	.	.	.	.	.	.	.
=27	=27	=27	=27	=27	=27	=27	=27	=27	=27	=27	=27	=27	=27	=27	=27	=27	=27	=27
!	!	!	!	!	!	!	!LO:TX:a:t=t.	!	!	!	!	!	!	!	!	!	!	!
4E\	#	.	4E\	.	4b/	.	8.gg#X\L	.	2.ryy	2.g#X\	.	2.ee\	.	2.ryy	2.r	.	2.r	.
.	.	.	.	.	.	.	32ff#\LL	.	.	.	.	.	.	.	.	.	.	.
.	.	.	.	.	.	.	32ee\JJJ	.	.	.	.	.	.	.	.	.	.	.
8r	.	.	8r	.	8r	.	8bb\L	.	.	.	.	.	.	.	.	.	.	.
8F#\L	.	.	8F#\L	.	8a/L	.	8dd\	.	.	.	.	.	.	.	.	.	.	.
8G#X\	6 5	.	8G#X\	.	8b/	.	8dd\	.	.	.	.	.	.	.	.	.	.	.
8E\J	.	.	8E\J	.	8g#X/J	.	8dd\J	.	.	.	.	.	.	.	.	.	.	.
=28	=28	=28	=28	=28	=28	=28	=28	=28	=28	=28	=28	=28	=28	=28	=28	=28	=28	=28
!	!	!	!	!	!LO:TX:a:t=t.	!	!LO:TX:a:t=t.	!	!	!	!	!	!	!	!	!	!	!
4A\	.	.	4A\	.	8.a/L	.	8.cc#\L	.	2.ryy	2a\	.	2ee\	.	2.ryy	2.r	.	2.r	.
.	.	.	.	.	32g#X/LL	.	32b\LL	.	.	.	.	.	.	.	.	.	.	.
.	.	.	.	.	32f#/JJJ	.	32a\JJJ	.	.	.	.	.	.	.	.	.	.	.
4r	.	.	4r	.	8e`/L	.	8g#X`/L	.	.	.	.	.	.	.	.	.	.	.
.	.	.	.	.	8d`/	.	8f#`/	.	.	.	.	.	.	.	.	.	.	.
4r	.	.	4r	.	8c#`/	.	8e`/	.	.	4r	.	4r	.	.	.	.	.	.
.	.	.	.	.	8B`/J	.	8d`/J	.	.	.	.	.	.	.	.	.	.	.
=29	=29	=29	=29	=29	=29	=29	=29	=29	=29	=29	=29	=29	=29	=29	=29	=29	=29	=29
!LO:TX:a:t=1.	!	!	!LO:TX:a:t=1.	!	!	!	!	!	!	!LO:TX:a:t=3.	!	!LO:TX:a:t=3.	!	!	!	!	!	!
2.r	.	.	2.r	.	4A/	.	4c#/	.	2.ryy	2.r	.	2.r	.	2.ryy	4r	.	8r	.
.	.	.	.	.	.	.	.	.	.	.	.	.	.	.	.	.	(16a/LL	.
.	.	.	.	.	.	.	.	.	.	.	.	.	.	.	.	.	16b/JJ)	.
.	.	.	.	.	4r	.	4r	.	.	.	.	.	.	.	(16a/LL	.	(16cc#\LL	.
.	.	.	.	.	.	.	.	.	.	.	.	.	.	.	16b/)	.	16dd\)	.
.	.	.	.	.	.	.	.	.	.	.	.	.	.	.	(16b/	.	(16dd\	.
.	.	.	.	.	.	.	.	.	.	.	.	.	.	.	16cc#/JJ)	.	16ee\JJ)	.
.	.	.	.	.	4r	.	4r	.	.	.	.	.	.	.	(16cc#\LL	.	(16ee\LL	.
.	.	.	.	.	.	.	.	.	.	.	.	.	.	.	16dd\)	.	16ff#\)	.
.	.	.	.	.	.	.	.	.	.	.	.	.	.	.	(16dd\	.	(16ff#\	.
.	.	.	.	.	.	.	.	.	.	.	.	.	.	.	16ee\JJ)	.	16gg\JJ)	.
=30	=30	=30	=30	=30	=30	=30	=30	=30	=30	=30	=30	=30	=30	=30	=30	=30	=30	=30
!	!	!	!	!	!	!	!	!	!	!	!	!	!	!	!LO:TX:a:t=t.	!	!LO:TX:a:t=t.	!
8r	.	.	8r	.	8r	.	8r	.	2.ryy	2.r	.	2.r	.	2.ryy	2.ee\	.	2.gg\	.
!	!	!LO:DY:t=pia&colon;	!	!LO:DY:t=pia&colon;	!	!LO:DY:t=pia&colon;	!	!LO:DY:t=pia&colon;	!	!	!	!	!	!	!	!	!	!
8AA#X/L	7 5	p	8AA#X/L	p	8e/L	p	8g\L	p	.	.	.	.	.	.	.	.	.	.
8AA#/	.	.	8AA#/	.	8gn/	.	8cc#\	.	.	.	.	.	.	.	.	.	.	.
8AA#/	.	.	8AA#/	.	8cc#/	.	8ee\	.	.	.	.	.	.	.	.	.	.	.
8AA#/	.	.	8AA#/	.	8g/	.	8cc#\	.	.	.	.	.	.	.	.	.	.	.
8AA#/J	.	.	8AA#/J	.	8e/J	.	8g\J	.	.	.	.	.	.	.	.	.	.	.
!	!	!	!	!	!LO:LB:g=original	!	!	!	!	!	!	!	!	!	!	!	!	!
=31	=31	=31	=31	=31	=31	=31	=31	=31	=31	=31	=31	=31	=31	=31	=31	=31	=31	=31
4BB/	.	.	4BB/	.	4d/	.	4f#/	.	2.ryy	2.r	.	2.r	.	2.ryy	(4dd\	.	(4ff#\	.
4C#/	6|	.	4C#/	.	4r	.	4r	.	.	.	.	.	.	.	4cc#\)	.	4ee\)	.
8D\L	6	.	8D\L	.	4r	.	4r	.	.	.	.	.	.	.	4b`\	.	4dd`\	.
8E\J	.	.	8E\J	.	.	.	.	.	.	.	.	.	.	.	.	.	.	.
!	!	!	!	!	!	!	!	!	!	!	!	!	!	!	!LO:LB:g=original	!	!	!
=32	=32	=32	=32	=32	=32	=32	=32	=32	=32	=32	=32	=32	=32	=32	=32	=32	=32	=32
!	!	!	!	!	!LO:TX:a:t=1.	!	!LO:TX:a:t=1.	!	!	!	!	!	!	!	!LO:TX:a:t=t.	!	!LO:TX:a:t=t.	!
.	.	.	.	.	.	.	.	.	.	.	.	.	.	.	8qqcc#/	.	8qqee/	.
4F#\	6 4	.	4F#\	.	2.r	.	2.r	.	2.ryy	8r	.	8r	.	2.ryy	4b/	.	4dd\	.
.	.	.	.	.	.	.	.	.	.	16F#/LL	.	16f#/LL	.	.	.	.	.	.
.	.	.	.	.	.	.	.	.	.	16F#/JJ	.	16f#/JJ	.	.	.	.	.	.
4FF#/	5 #	.	4FF#/	.	.	.	.	.	.	8F#/L	.	8f#/L	.	.	4a#X/	.	4cc#\	.
.	.	.	.	.	.	.	.	.	.	8F#/	.	8f#/	.	.	.	.	.	.
4r	.	.	4r	.	.	.	.	.	.	8F#/	.	8f#/	.	.	4r	.	4r	.
.	.	.	.	.	.	.	.	.	.	8F#/J	.	8f#/J	.	.	.	.	.	.
!	!	!	!	!	!	!	!	!	!	!	!	!	!	!	!	!	!LO:LB:g=original	!
=33	=33	=33	=33	=33	=33	=33	=33	=33	=33	=33	=33	=33	=33	=33	=33	=33	=33	=33
!	!	!LO:DY:t=for	!	!LO:DY:t=for.	!	!	!	!LO:DY:t=for&colon;	!	!	!	!	!	!	!	!	!	!
8F#\L	#	f	8F#\L	f	8r	.	(16a#X\LL	f	2.ryy	2.ryy	.	4f#/	.	2.ryy	4.a#X/	.	4.cc#\	.
.	.	.	.	.	.	.	16b\	.	.	.	.	.	.	.	.	.	.	.
!	!	!	!	!	!	!LO:DY:t=for	!	!	!	!	!	!	!	!	!	!	!	!
8F#\	.	.	8F#\	.	(16a#X/LL	f	16cc#\	.	.	.	.	.	.	.	.	.	.	.
.	.	.	.	.	16b/JJ)	.	16dd\JJ)	.	.	.	.	.	.	.	.	.	.	.
8F#\	.	.	8F#\	.	8cc#\	.	8ee\	.	.	.	.	4r	.	.	.	.	.	.
8F#\	.	.	8F#\	.	4b/	.	4dd\	.	.	.	.	.	.	.	8b\L	.	8dd\L	.
8F#\	.	.	8F#\	.	.	.	.	.	.	.	.	4r	.	.	8b\	.	8dd\	.
8F#\J	.	.	8F#\J	.	8a#X/	.	8cc#\	.	.	.	.	.	.	.	8cc#\J	.	8ee\J	.
=34	=34	=34	=34	=34	=34	=34	=34	=34	=34	=34	=34	=34	=34	=34	=34	=34	=34	=34
.	.	.	.	.	.	.	.	.	.	.	.	.	.	.	8qqcc#/	.	8qqee/	.
8F#\L	6 4	.	8F#\L	.	8r	.	(16b\LL	.	2.ryy	2.ryy	.	8r	.	2.ryy	4.b\	.	4.dd\	.
.	.	.	.	.	.	.	16cc#\	.	.	.	.	.	.	.	.	.	.	.
8F#\	.	.	8F#\	.	(16b\LL	.	16dd\	.	.	.	.	16f#/LL	.	.	.	.	.	.
.	.	.	.	.	16cc#\JJ)	.	16ee\JJ)	.	.	.	.	16f#/JJ	.	.	.	.	.	.
8F#\	.	.	8F#\	.	8dd\	.	8ff#\	.	.	.	.	8f#/L	.	.	.	.	.	.
8F#\	.	.	8F#\	.	4cc#\	.	4ee\	.	.	.	.	8f#/	.	.	8cc#\L	.	8ee\L	.
8F#\	.	.	8F#\	.	.	.	.	.	.	.	.	8f#/	.	.	8cc#\	.	8ee\	.
8F#\J	.	.	8F#\J	.	8b\	.	8dd\	.	.	.	.	8f#/J	.	.	8dd\J	.	8ff#\J	.
!LO:LB:g=original	!	!	!	!	!	!	!	!	!	!	!	!LO:LB:g=original	!	!	!	!	!	!
=35	=35	=35	=35	=35	=35	=35	=35	=35	=35	=35	=35	=35	=35	=35	=35	=35	=35	=35
.	.	.	.	.	.	.	.	.	.	.	.	.	.	.	8qqdd/	.	8qqff#/	.
8F#\L	7 #	.	8F#\L	.	8r	.	(16cc#\LL	.	2.ryy	2.ryy	.	4f#/	.	2.ryy	4.cc#\	.	4.ee\	.
.	.	.	.	.	.	.	16dd\	.	.	.	.	.	.	.	.	.	.	.
8F#\	.	.	8F#\	.	(16cc#\LL	.	16ee\	.	.	.	.	.	.	.	.	.	.	.
.	.	.	.	.	16dd\JJ)	.	16ff#\JJ)	.	.	.	.	.	.	.	.	.	.	.
8F#\	.	.	8F#\	.	8ee\	.	8gg\	.	.	.	.	4r	.	.	.	.	.	.
8F#\	.	.	8F#\	.	4dd\	.	4ff#\	.	.	.	.	.	.	.	8dd\L	.	8ff#\L	.
8F#\	.	.	8F#\	.	.	.	.	.	.	.	.	4r	.	.	8dd\	.	8ff#\	.
8F#\J	.	.	8F#\J	.	8cc#\	.	8ee\	.	.	.	.	.	.	.	8ee\J	.	8gg\J	.
!	!	!	!LO:LB:g=original	!	!	!	!LO:LB:g=original	!	!	!	!	!	!	!	!	!	!	!
=36	=36	=36	=36	=36	=36	=36	=36	=36	=36	=36	=36	=36	=36	=36	=36	=36	=36	=36
.	.	.	.	.	.	.	.	.	.	.	.	.	.	.	8qqee/	.	8qqgg/	.
8BB/L	.	.	8BB/L	.	8r	.	8r	.	2.ryy	2.ryy	.	4f#/	.	2.ryy	4dd\	.	4ff#\	.
8B\J	.	.	8B\J	.	8b\	.	8dd\	.	.	.	.	.	.	.	.	.	.	.
8GG/L	5	.	8GG/L	.	16r	.	16r	.	.	.	.	4r	.	.	4r	.	4r	.
.	.	.	.	.	16b\KL	.	16dd\KL	.	.	.	.	.	.	.	.	.	.	.
!	!	!	!	!	!LO:TX:a:t=t.	!	!LO:TX:a:t=t.	!	!	!	!	!	!	!	!	!	!	!
8G\J	.	.	8G\J	.	8b\J	.	8dd\J	.	.	.	.	.	.	.	.	.	.	.
8E#X\L	7 5	.	8E#X\L	.	16r	.	16r	.	.	.	.	4r	.	.	4r	.	4r	.
.	.	.	.	.	16b\LL	.	16dd\LL	.	.	.	.	.	.	.	.	.	.	.
8E#\J	.	.	8E#\J	.	16dd\	.	16bb\	.	.	.	.	.	.	.	.	.	.	.
.	.	.	.	.	16b\JJ	.	16dd\JJ	.	.	.	.	.	.	.	.	.	.	.
=37	=37	=37	=37	=37	=37	=37	=37	=37	=37	=37	=37	=37	=37	=37	=37	=37	=37	=37
!	!	!	!	!	!	!	!	!	!	!	!	!LO:TX:a:t=1	!	!	!	!	!	!
.	.	.	.	.	.	.	8qqdd/	.	.	.	.	.	.	.	.	.	.	.
8F#\L	#	.	8F#\L	.	4.a#X/	.	4.cc#\	.	2.ryy	2.ryy	.	2.r	.	2.ryy	4.a#X/	.	4.cc#\	.
8G\	.	.	8G\	.	.	.	.	.	.	.	.	.	.	.	.	.	.	.
8F#\	.	.	8F#\	.	.	.	.	.	.	.	.	.	.	.	.	.	.	.
8En\	4| 3	.	8En\	.	8a#/	.	8gg\L	.	.	.	.	.	.	.	8a#/L	.	8gg\L	.
8D\	6	.	8D\	.	8b\L	.	8ff#\	.	.	.	.	.	.	.	8f#/	.	8ff#\	.
8C#\J	6|	.	8C#\J	.	8cc#\J	.	8ee\J	.	.	.	.	.	.	.	8a#/J	.	8ee\J	.
=38	=38	=38	=38	=38	=38	=38	=38	=38	=38	=38	=38	=38	=38	=38	=38	=38	=38	=38
8BB/L	.	.	8BB/L	.	8f#/L	.	(32dd\LLL	.	2.ryy	2.ryy	.	4f#/	.	2.ryy	4b/	.	(32dd\LLL	.
.	.	.	.	.	.	.	32cc#\JJ	.	.	.	.	.	.	.	.	.	32cc#\JJ	.
.	.	.	.	.	.	.	8.b\J)	.	.	.	.	.	.	.	.	.	8.b\J)	.
8D/J	.	.	8D/J	.	8b/J	.	.	.	.	.	.	.	.	.	.	.	.	.
!	!	!	!	!	!LO:TX:a:t=t.	!	!LO:TX:a:t=t	!	!	!	!	!	!	!	!LO:TX:a:t=t.	!	!LO:TX:a:t=t.	!
.	.	.	.	.	.	.	8qqb/	.	.	.	.	.	.	.	.	.	8qqb/	.
8F#\L	#	.	8F#\L	.	2a#X/	.	2cc#\	.	.	.	.	4f#/	.	.	2a#X/	.	2cc#\	.
8E\	.	.	8E\	.	.	.	.	.	.	.	.	.	.	.	.	.	.	.
8F#\	7	.	8F#\	.	.	.	.	.	.	.	.	4f#/	.	.	.	.	.	.
8FF#/J	.	.	8FF#/J	.	.	.	.	.	.	.	.	.	.	.	.	.	.	.
!	!	!	!	!	!	!	!LO:LB:g=original	!	!	!	!	!	!	!	!	!	!	!
=39	=39	=39	=39	=39	=39	=39	=39	=39	=39	=39	=39	=39	=39	=39	=39	=39	=39	=39
!	!	!LO:DY:t=pia&colon;	!	!LO:DY:t=pia&colon;	!	!	!	!	!	!	!	!	!	!	!	!	!	!
8BB/L	.	p	8BB/L	p	2b\	.	2b\	.	2.ryy	2.ryy	.	8r	.	2.ryy	4b\	.	4b\	.
!	!	!	!	!	!	!	!	!	!	!	!	!LO:TX:b:t=Solo.	!	!	!	!	!	!
8BB/	.	.	8BB/	.	.	.	.	.	.	.	.	8ff#\L	.	.	.	.	.	.
8BB/	.	.	8BB/	.	.	.	.	.	.	.	.	8ff#\	.	.	4dd\	.	4ff#\	.
8BB/	.	.	8BB/	.	.	.	.	.	.	.	.	8ff#\J	.	.	.	.	.	.
8BB/	.	.	8BB/	.	4r	.	4r	.	.	.	.	16ff#\LL	.	.	4dd\	.	4ff#\	.
.	.	.	.	.	.	.	.	.	.	.	.	16gg\	.	.	.	.	.	.
8BB/J	.	.	8BB/J	.	.	.	.	.	.	.	.	16ee\	.	.	.	.	.	.
.	.	.	.	.	.	.	.	.	.	.	.	16ff#\JJ	.	.	.	.	.	.
=40	=40	=40	=40	=40	=40	=40	=40	=40	=40	=40	=40	=40	=40	=40	=40	=40	=40	=40
!	!	!	!	!	!LO:TX:a:t=3.	!	!LO:TX:a:t=3.	!	!	!	!	!	!	!	!	!	!	!
.	.	.	.	.	.	.	.	.	.	.	.	8qqff#/	.	.	.	.	.	.
8E\L	.	.	8E\L	.	2.r	.	2.r	.	2.ryy	2ryy	.	2.gg\	.	2.ryy	2b\	.	2gg\	.
8E\	.	.	8E\	.	.	.	.	.	.	.	.	.	.	.	.	.	.	.
8E\	.	.	8E\	.	.	.	.	.	.	.	.	.	.	.	.	.	.	.
8E\	.	.	8E\	.	.	.	.	.	.	.	.	.	.	.	.	.	.	.
8E\	.	.	8E\	.	.	.	.	.	.	8ryy	.	.	.	.	8ee\L	.	8gg\L	.
8E\J	.	.	8E\J	.	.	.	.	.	.	16a\LL	.	.	.	.	8dd\J	.	8ff#\J	.
.	.	.	.	.	.	.	.	.	.	16b\JJ	.	.	.	.	.	.	.	.
=41	=41	=41	=41	=41	=41	=41	=41	=41	=41	=41	=41	=41	=41	=41	=41	=41	=41	=41
8AA/L	.	.	8AA/L	.	2.r	.	2.r	.	2.ryy	2.cc#\	.	8r	.	2.ryy	4cc#\	.	4ee\	.
8AA/	.	.	8AA/	.	.	.	.	.	.	.	.	8ee`\L	.	.	.	.	.	.
8AA/	.	.	8AA/	.	.	.	.	.	.	.	.	8ee`\	.	.	4cc#\	.	4ee\	.
8AA/	.	.	8AA/	.	.	.	.	.	.	.	.	8ee`\J	.	.	.	.	.	.
8AA/	.	.	8AA/	.	.	.	.	.	.	.	.	16ee\LL	.	.	4cc#\	.	4ee\	.
.	.	.	.	.	.	.	.	.	.	.	.	16ff#\	.	.	.	.	.	.
8AA/J	.	.	8AA/J	.	.	.	.	.	.	.	.	16dd\	.	.	.	.	.	.
.	.	.	.	.	.	.	.	.	.	.	.	16ee\JJ	.	.	.	.	.	.
=42	=42	=42	=42	=42	=42	=42	=42	=42	=42	=42	=42	=42	=42	=42	=42	=42	=42	=42
8D\L	.	.	8D\L	.	2.r	.	2.r	.	2.ryy	8r	.	2.ff#\	.	2.ryy	2a/	.	2ff#\	.
8D\	.	.	8D\	.	.	.	.	.	.	8a`\L	.	.	.	.	.	.	.	.
8D\	.	.	8D\	.	.	.	.	.	.	8a`\	.	.	.	.	.	.	.	.
8D\	.	.	8D\	.	.	.	.	.	.	8a`\J	.	.	.	.	.	.	.	.
8D\	.	.	8D\	.	.	.	.	.	.	16a\LL	.	.	.	.	8dd\L	.	8ff#\L	.
.	.	.	.	.	.	.	.	.	.	16b\	.	.	.	.	.	.	.	.
8D\J	.	.	8D\J	.	.	.	.	.	.	16g\	.	.	.	.	8ccn\J	.	8ee\J	.
.	.	.	.	.	.	.	.	.	.	16a\JJ	.	.	.	.	.	.	.	.
=43	=43	=43	=43	=43	=43	=43	=43	=43	=43	=43	=43	=43	=43	=43	=43	=43	=43	=43
!	!	!LO:DY:t=for	!	!LO:DY:t=for	!	!	!LO:TX:a:t=t.	!	!	!	!	!	!	!	!	!	!	!
4G\	.	f	4GG/	f	4d/	.	8.b/L	.	2.ryy	4b\	.	4gg\	.	2.ryy	4b/	.	[2.dd\	.
.	.	.	.	.	.	.	32a/LL	.	.	.	.	.	.	.	.	.	.	.
.	.	.	.	.	.	.	32g/JJJ	.	.	.	.	.	.	.	.	.	.	.
8r	.	.	8r	.	8r	.	8dd`\L	.	.	4r	.	4r	.	.	8r	.	.	.
8G\L	.	.	8G\L	.	8b/L	.	8dd`\	.	.	.	.	.	.	.	8b/L	.	.	.
8F#\	6	.	8F#\	.	8a/	.	8dd`\	.	.	4r	.	4r	.	.	8a/	.	.	.
8E\J	.	.	8E\J	.	8g/J	.	8dd`\J	.	.	.	.	.	.	.	8g/J	.	.	.
!LO:LB:g=original	!	!	!	!	!	!	!	!	!	!	!	!	!	!	!	!	!	!
=44	=44	=44	=44	=44	=44	=44	=44	=44	=44	=44	=44	=44	=44	=44	=44	=44	=44	=44
!	!	!	!	!	!	!	!LO:TX:a:t=t.	!	!	!	!	!	!	!	!	!	!LO:TX:a:t=t.	!
4D\	.	.	4D\	.	4a/	.	8.f#/L	.	2.ryy	2.a\	.	2.ff#\	.	2.ryy	4a/	.	2.dd\]	.
.	.	.	.	.	.	.	32e/LL	.	.	.	.	.	.	.	.	.	.	.
.	.	.	.	.	.	.	32d/JJJ	.	.	.	.	.	.	.	.	.	.	.
8r	.	.	8r	.	8r	.	8dd`\L	.	.	.	.	.	.	.	8r	.	.	.
8E\L	.	.	8E\L	.	8g/L	.	8dd`\	.	.	.	.	.	.	.	8g/L	.	.	.
8F#\	6	.	8F#\	.	8a/	.	8dd`\	.	.	.	.	.	.	.	8a/	.	.	.
8D\J	.	.	8D\J	.	8f#/J	.	8dd`\J	.	.	.	.	.	.	.	8f#/J	.	.	.
!	!	!	!	!	!	!	!	!	!	!	!	!	!	!	!LO:LB:g=original	!	!	!
=45	=45	=45	=45	=45	=45	=45	=45	=45	=45	=45	=45	=45	=45	=45	=45	=45	=45	=45
!	!	!	!	!	!	!	!LO:TX:a:t=t.	!	!	!LO:TX:a:t=t.	!	!LO:TX:a:t=t.	!	!	!	!	!	!
4A\	7	.	4A\	.	4e/	.	8.cc#\L	.	2.ryy	2.g\	.	2.ee\	.	2.ryy	4e/	.	4cc#\	.
.	.	.	.	.	.	.	32b\LL	.	.	.	.	.	.	.	.	.	.	.
.	.	.	.	.	.	.	32a\JJJ	.	.	.	.	.	.	.	.	.	.	.
8r	.	.	8r	.	8r	.	8gg`\L	.	.	.	.	.	.	.	4r	.	4r	.
8B\L	.	.	8B\L	.	8dd\L	.	8gg`\	.	.	.	.	.	.	.	.	.	.	.
8c#\	6 5	.	8c#\	.	8ee\	.	8gg`\	.	.	.	.	.	.	.	4r	.	4r	.
8A\J	.	.	8A\J	.	8cc#\J	.	8gg`\J	.	.	.	.	.	.	.	.	.	.	.
!	!	!	!	!	!LO:LB:g=original	!	!	!	!	!	!	!	!	!	!	!	!	!
=46	=46	=46	=46	=46	=46	=46	=46	=46	=46	=46	=46	=46	=46	=46	=46	=46	=46	=46
!	!	!	!	!	!LO:TX:a:t=t.	!	!LO:TX:a:t=t.	!	!	!	!	!	!	!	!LO:TX:a:t=1.	!	!LO:TX:a:t=1.	!
4d\	.	.	4d\	.	8.dd\L	.	8.ff#\L	.	2.ryy	4f#\	.	4dd\	.	2.ryy	2.r	.	2.r	.
.	.	.	.	.	32cc#\LL	.	32ee\LL	.	.	.	.	.	.	.	.	.	.	.
.	.	.	.	.	32b\JJJ	.	32dd\JJJ	.	.	.	.	.	.	.	.	.	.	.
4r	.	.	4r	.	8a`/L	.	8cc#`\L	.	.	4r	.	4r	.	.	.	.	.	.
.	.	.	.	.	8g`/	.	8b`\	.	.	.	.	.	.	.	.	.	.	.
4c#\	6 5	.	4c#\	.	8f#`/	.	8a`\	.	.	4g\	.	4ee\	.	.	.	.	.	.
.	.	.	.	.	8e`/J	.	8g`\J	.	.	.	.	.	.	.	.	.	.	.
!	!	!	!LO:LB:g=original	!	!	!	!	!	!	!	!	!	!	!	!	!	!	!
=47	=47	=47	=47	=47	=47	=47	=47	=47	=47	=47	=47	=47	=47	=47	=47	=47	=47	=47
!	!	!	!	!	!	!	!	!	!	!	!	!	!	!	!LO:TX:a:t=t.	!	!LO:TX:a:t=t.	!
4D/	.	.	4D/	p	4d/	.	4f#/	.	2.ryy	4f#\	.	4dd\	.	2.ryy	8.dd\L	.	8.ff#\L	.
.	.	.	.	.	.	.	.	.	.	.	.	.	.	.	32cc#\LL	.	32ee\LL	.
*	*	*	*	*	*	*	*	*	*	*	*	*	*	*	*	*	*custos:cc	*
.	.	.	.	.	.	.	.	.	.	.	.	.	.	.	32b\JJJ	.	32dd\JJJ	.
!	!	!	!	!	!	!	!	!	!	!	!	!	!	!	!	!	!LO:LB:g=original	!
4r	.	.	4r	.	4r	.	4r	.	.	4r	.	4r	.	.	8a\L	.	8cc#\L	.
.	.	.	.	.	.	.	.	.	.	.	.	.	.	.	8gg\	.	8bb\	.
4C#/	6 5	.	4C#/	.	[4a/	.	4ee\	.	.	4e\	.	4a/	.	.	8ff#\	.	8aa\	.
.	.	.	.	.	.	.	.	.	.	.	.	.	.	.	8ee\J	.	8gg\J	.
!	!	!	!	!	!	!	!	!	!	!	!	!LO:LB:g=original	!	!	!	!	!	!
=48	=48	=48	=48	=48	=48	=48	=48	=48	=48	=48	=48	=48	=48	=48	=48	=48	=48	=48
!	!	!	!	!	!	!	!LO:TUP:a:problem=klamra łukowa	!	!	!	!	!	!	!	!	!	!	!
.	.	.	.	.	.	.	.	.	.	.	.	.	.	.	.	.	8qqgg/	.
!	!	!	!	!	!	!	!LO:TX:t=P:problem= problem klamry łukowej	!	!	!	!	!	!	!	!	!	!	!
8D\L	.	.	8D\L	.	8a\L]	.	12ff#\L	.	2.ryy	2.ryy	.	4dd\	.	2.ryy	4dd\	.	8ff#\L	.
.	.	.	.	.	.	.	12ee\	.	.	.	.	.	.	.	.	.	.	.
.	.	.	.	.	.	.	.	.	.	.	.	.	.	.	.	.	8qqee/	.
8F#\	.	.	8F#\	.	8dd\J	.	.	.	.	.	.	.	.	.	.	.	8dd\J	.
.	.	.	.	.	.	.	12dd\J	.	.	.	.	.	.	.	.	.	.	.
!	!	!	!	!	!LO:TX:a:t=t.	!	!LO:TX:a:t=t.	!	!	!	!	!	!	!	!LO:TX:a:t=t.	!	!LO:TX:a:t=t.	!
.	.	.	.	.	8qqdd/	.	8qqdd/	.	.	.	.	.	.	.	.	.	8qqdd/	.
8A\	.	.	8A\	.	2cc#\	.	2ee\	.	.	.	.	4.a/	.	.	2cc#\	.	2ee\	.
8G\	.	.	8G\	.	.	.	.	.	.	.	.	.	.	.	.	.	.	.
8A\	.	.	8A\	.	.	.	.	.	.	.	.	.	.	.	.	.	.	.
8AA/J	.	.	8AA/J	.	.	.	.	.	.	.	.	8a/	.	.	.	.	.	.
!	!	!	!	!	!	!	!LO:LB:g=original	!	!	!	!	!	!	!	!	!	!	!
=49	=49	=49	=49	=49	=49	=49	=49	=49	=49	=49	=49	=49	=49	=49	=49	=49	=49	=49
!	!	!	!	!	!	!	!	!	!	!	!	!LO:TX:a:t=t	!	!	!	!	!	!
4D/	.	.	4D/	.	8dd\L	.	8dd\L	.	2.ryy	2.ryy	.	[2dd\	.	2.ryy	16dd\LL	.	16dd\LL	.
.	.	.	.	.	.	.	.	.	.	.	.	.	.	.	16dd\	.	16ff#\	.
.	.	.	.	.	8d`/	.	8d`/	.	.	.	.	.	.	.	16ee\	.	16gg\	.
.	.	.	.	.	.	.	.	.	.	.	.	.	.	.	16dd\JJ	.	16ff#\JJ	.
!	!	!	!	!	!	!	!	!	!	!	!	!	!	!	!LO:TX:a:t=t	!	!LO:TX:a:t=t.	!
4r	.	.	4r	.	8d`/	.	8d`/	.	.	.	.	.	.	.	[2dd\	.	[2ff#\	.
.	.	.	.	.	8d`/J	.	8d`/J	.	.	.	.	.	.	.	.	.	.	.
4C#/	4 2	.	4C#/	.	8c#/L	.	8c#/L	.	.	.	.	16dd\LL]	.	.	.	.	.	.
.	.	.	.	.	.	.	.	.	.	.	.	16dd\	.	.	.	.	.	.
.	.	.	.	.	8d/J	.	8d/J	.	.	.	.	16ee\	.	.	.	.	.	.
.	.	.	.	.	.	.	.	.	.	.	.	16dd\JJ	.	.	.	.	.	.
=50	=50	=50	=50	=50	=50	=50	=50	=50	=50	=50	=50	=50	=50	=50	=50	=50	=50	=50
!	!	!	!	!	!	!	!	!	!	!	!	!LO:TX:a:t=t	!	!	!	!	!	!
4BB/	5	.	4BB/	.	8dd\L	.	8dd\L	.	2.ryy	2.ryy	.	[2dd\	.	2.ryy	16dd\LL]	.	16ff#\LL]	.
.	.	.	.	.	.	.	.	.	.	.	.	.	.	.	16dd\	.	16ff#\	.
.	.	.	.	.	8d`/	.	8d`/	.	.	.	.	.	.	.	16ee\	.	16gg\	.
.	.	.	.	.	.	.	.	.	.	.	.	.	.	.	16dd\JJ	.	16ff#\JJ	.
!	!	!	!	!	!	!	!	!	!	!	!	!	!	!	!LO:TX:a:t=t	!	!LO:TX:a:t=t	!
4r	.	.	4r	.	8d`/	.	8d`/	.	.	.	.	.	.	.	2dd\	.	2ff#\	.
.	.	.	.	.	8d`/J	.	8d`/J	.	.	.	.	.	.	.	.	.	.	.
4AA/	6 4	.	4AA/	.	8A/L	.	8A/L	.	.	.	.	16dd\LL]	.	.	.	.	.	.
.	.	.	.	.	.	.	.	.	.	.	.	16dd\	.	.	.	.	.	.
.	.	.	.	.	8d/J	.	8d/J	.	.	.	.	16ee\	.	.	.	.	.	.
.	.	.	.	.	.	.	.	.	.	.	.	16dd\JJ	.	.	.	.	.	.
=51	=51	=51	=51	=51	=51	=51	=51	=51	=51	=51	=51	=51	=51	=51	=51	=51	=51	=51
2GG/	6	.	2GG/	.	8G/L	.	8G/L	.	2.ryy	2.ryy	.	4ee\	.	2.ryy	(16ee\LL	.	(16gg\LL	.
.	.	.	.	.	.	.	.	.	.	.	.	.	.	.	16ff#\JJ	.	16aa\JJ	.
.	.	.	.	.	8gg\J	.	8bb\J	.	.	.	.	.	.	.	4gg\)	.	4bb\)	.
.	.	.	.	.	(4gg\	.	(4bb\	.	.	.	.	4r	.	.	.	.	.	.
.	.	.	.	.	.	.	.	.	.	.	.	.	.	.	8gg\L	.	8bb\L	.
4AA/	.	.	4AA/	.	8ff#\L)	.	8aa\L)	.	.	.	.	4a/	.	.	8ff#\	.	8aa\	.
.	.	.	.	.	8ee`\J	.	8cc#`\J	.	.	.	.	.	.	.	8ee\J	.	8gg\J	.
=52	=52	=52	=52	=52	=52	=52	=52	=52	=52	=52	=52	=52	=52	=52	=52	=52	=52	=52
!	!	!	!	!	!	!	!	!	!	!	!	!LO:TX:a:t=t	!	!	!	!	!	!
!	!	!	!	!	!	!LO:DY:t=pia&colon;	!	!LO:DY:t=p&colon;	!	!	!	!	!	!	!	!	!	!LO:DY:t=pia&colon;
!	!	!	!	!	!	!	!	!	!	!	!	!	!	!	!	!LO:DY:t=pia&colon;	!	!
!	!	!LO:DY:t=pia&colon;	!	!LO:DY:t=pia&colon;	!	!	!	!	!	!	!	!	!LO:DY:t=pia	!	!	!	!	!
4D/	.	p	4D/	p	8dd\L	p	8dd\L	p	2.ryy	2.ryy	.	[2dd\	p	2.ryy	16dd\LL	p	16ff#\LL	p
.	.	.	.	.	.	.	.	.	.	.	.	.	.	.	16dd\	.	16ff#\	.
.	.	.	.	.	8d`/	.	8d`/	.	.	.	.	.	.	.	16ee\	.	16gg\	.
.	.	.	.	.	.	.	.	.	.	.	.	.	.	.	16dd\JJ	.	16ff#\JJ	.
!	!	!	!	!	!	!	!	!	!	!	!	!	!	!	!LO:TX:a:t=t.	!	!LO:TX:a:t=t	!
4r	.	.	4r	.	8d`/	.	8d`/	.	.	.	.	.	.	.	[2dd\	.	[2ff#\	.
.	.	.	.	.	8d`/J	.	8d`/J	.	.	.	.	.	.	.	.	.	.	.
4C#/	4 2	.	4C#/	.	8c#/L	.	8c#/L	.	.	.	.	16dd\LL]	.	.	.	.	.	.
.	.	.	.	.	.	.	.	.	.	.	.	16dd\	.	.	.	.	.	.
.	.	.	.	.	8d/J	.	8d/J	.	.	.	.	16ee\	.	.	.	.	.	.
.	.	.	.	.	.	.	.	.	.	.	.	16dd\JJ	.	.	.	.	.	.
=53	=53	=53	=53	=53	=53	=53	=53	=53	=53	=53	=53	=53	=53	=53	=53	=53	=53	=53
!	!	!	!	!	!	!	!	!	!	!	!	!LO:TX:a:t=t	!	!	!	!	!	!
4BB/	5	.	4BB/	.	8dd\L	.	8dd\L	.	2.ryy	2ryy	.	[2dd\	.	2.ryy	16dd\LL]	.	16ff#\LL]	.
.	.	.	.	.	.	.	.	.	.	.	.	.	.	.	16dd\	.	16ff#\	.
.	.	.	.	.	8d`/	.	8d`/	.	.	.	.	.	.	.	16ee\	.	16gg\	.
.	.	.	.	.	.	.	.	.	.	.	.	.	.	.	16dd\JJ	.	16ff#\JJ	.
!	!	!	!	!	!	!	!	!	!	!	!	!	!	!	!LO:TX:a:t=t.	!	!LO:TX:a:t=t.	!
4r	.	.	4r	.	8d`/	.	8d`/	.	.	.	.	.	.	.	2dd\	.	2ff#\	.
.	.	.	.	.	8d`/J	.	8d`/J	.	.	.	.	.	.	.	.	.	.	.
4AA/	6 4	.	4AA/	.	8A/L	.	8A/L	.	.	8ryy	.	16dd\LL]	.	.	.	.	.	.
.	.	.	.	.	.	.	.	.	.	.	.	16dd\	.	.	.	.	.	.
.	.	.	.	.	8d/J	.	8d/J	.	.	16g\LL	.	16ee\	.	.	.	.	.	.
.	.	.	.	.	.	.	.	.	.	16f#\JJ	.	16dd\JJ	.	.	.	.	.	.
!LO:LB:g=original	!	!	!	!	!	!	!	!	!	!	!	!	!	!	!	!	!	!
=54	=54	=54	=54	=54	=54	=54	=54	=54	=54	=54	=54	=54	=54	=54	=54	=54	=54	=54
2GG/	6	.	2GG/	.	8G/L	.	8G/L	.	2.ryy	4.g\	.	4ee\	.	2.ryy	(16ee\LL	.	(16gg\LL	.
.	.	.	.	.	.	.	.	.	.	.	.	.	.	.	16ff#\JJ	.	16aa\JJ	.
.	.	.	.	.	8gg\J	.	8bb\J	.	.	.	.	.	.	.	4gg\)	.	4bb\)	.
.	.	.	.	.	(4gg\	.	(4bb\	.	.	.	.	4r	.	.	.	.	.	.
.	.	.	.	.	.	.	.	.	.	8g\L	.	.	.	.	8gg\L	.	8bb\L	.
4AA/	.	.	4AA/	.	8ff#\L)	.	8aa\L)	.	.	8f#\	.	4a/	.	.	8ff#\	.	8aa\	.
.	.	.	.	.	8ee`\J	.	8cc#`\J	.	.	8e\J	.	.	.	.	8ee\J	.	8cc#\J	.
=55	=55	=55	=55	=55	=55	=55	=55	=55	=55	=55	=55	=55	=55	=55	=55	=55	=55	=55
!	!	!	!	!	!LO:TX:a:t=t.	!	!LO:TX:a:t=t.	!	!	!	!	!	!	!	!LO:TX:a:t=t	!	!LO:TX:a:t=t.	!
!	!	!	!	!	!	!LO:DY:t=for	!	!LO:DY:t=for	!	!	!	!	!	!	!	!	!	!LO:DY:t=for
!	!	!	!	!	!	!	!	!	!	!	!	!	!	!	!	!LO:DY:t=for	!	!
!	!	!	!	!LO:DY:t=for	!	!	!	!	!	!	!	!	!LO:DY:t=for&colon;	!	!	!	!	!
8.d\L	.	.	8.d\L	f	8.dd\L	f	8.dd\L	f	2.ryy	4d\	f	4dd\	f	2.ryy	8.dd\L	f	8.dd\L	f
32c#\LL	.	.	32c#\LL	.	32cc#\LL	.	32cc#\LL	.	.	.	.	.	.	.	32cc#\LL	.	32cc#\LL	.
32B\JJJ	.	.	32B\JJJ	.	32b\JJJ	.	32b\JJJ	.	.	.	.	.	.	.	32b\JJJ	.	32b\JJJ	.
8A`\L	.	.	8A`\L	.	8a\L	.	8a\L	.	.	4r	.	4r	.	.	8a\L	.	8a\L	.
8d`\J	.	.	8d`\J	.	8dd\J	.	8dd\J	.	.	.	.	.	.	.	8dd\J	.	8dd\J	.
8G`\L	.	.	8G`\L	.	8g\L	.	8g\L	.	.	4r	.	4r	.	.	8g\L	.	8g\L	.
8d`\J	.	.	8d`\J	.	8dd\J	.	8dd\J	.	.	.	.	.	.	.	8dd\J	.	8dd\J	.
!	!	!	!	!	!	!	!	!	!	!	!	!	!	!	!LO:LB:g=original	!	!	!
=56	=56	=56	=56	=56	=56	=56	=56	=56	=56	=56	=56	=56	=56	=56	=56	=56	=56	=56
!	!	!	!	!	!LO:TX:a:t=t	!	!LO:TX:a:t=t	!	!	!	!	!	!	!	!	!	!	!
8.F#\L	.	.	8.F#\L	.	8.f#/L	.	8.f#/L	.	2.ryy	4F#/	.	4f#/	.	2.ryy	4f#/	.	4f#/	.
32E\LL	.	.	32E\LL	.	32e/LL	.	32e/LL	.	.	.	.	.	.	.	.	.	.	.
32D\JJJ	.	.	32D\JJJ	.	32d/JJJ	.	32d/JJJ	.	.	.	.	.	.	.	.	.	.	.
8C#`/L	.	.	8C#`/L	.	8c#/L	.	8c#/L	.	.	4r	.	4r	.	.	4r	.	4r	.
!	!	!	!	!	!	!	!LO:LB:g=original	!	!	!	!	!	!	!	!	!	!	!
8D`/J	.	.	8D`/J	.	8dd\J	.	8dd\J	.	.	.	.	.	.	.	.	.	.	.
8BB`/L	.	.	8BB`/L	.	8B/L	.	8B/L	.	.	4r	.	4r	.	.	4r	.	4r	.
8D`/J	.	.	8D`/J	.	8dd\J	.	8dd\J	.	.	.	.	.	.	.	.	.	.	.
!	!	!	!LO:LB:g=original	!	!LO:LB:g=original	!	!	!	!	!	!	!	!	!	!	!	!LO:LB:g=original	!
=57	=57	=57	=57	=57	=57	=57	=57	=57	=57	=57	=57	=57	=57	=57	=57	=57	=57	=57
!	!	!	!	!	!LO:TX:a:t=t	!	!LO:TX:a:t=t	!	!	!	!	!	!	!	!LO:TX:a:t=t	!	!LO:TX:a:t=t.	!
8.AA/L	.	.	8.AA/L	.	8.A/L	.	8.A/L	.	2.ryy	4A/	.	4a/	.	2.ryy	8.a\L	.	8.a\L	.
32BB/LL	.	.	32BB/LL	.	32B/LL	.	32B/LL	.	.	.	.	.	.	.	32b\LL	.	32b\LL	.
32C#/JJJ	.	.	32C#/JJJ	.	32c#/JJJ	.	32c#/JJJ	.	.	.	.	.	.	.	32cc#\JJJ	.	32cc#\JJJ	.
8D`\L	.	.	8D`\L	.	8d`/L	.	8d`/L	.	.	8d`\L	.	8dd`\L	.	.	8dd`\L	.	8dd`\L	.
8A`\J	.	.	8A`\J	.	8a`/	.	8a`/	.	.	8A`\	.	8a`\	.	.	8a`\	.	8a`\	.
8F#`\L	.	.	8F#`\L	.	8f#`/	.	8f#`/	.	.	8F#`\	.	8f#`\	.	.	8f#`\	.	8f#`\	.
8A`\J	.	.	8A`\J	.	8a`/J	.	8a`/J	.	.	8A`\J	.	8a`\J	.	.	8a`\J	.	8a`\J	.
=58	=58	=58	=58	=58	=58	=58	=58	=58	=58	=58	=58	=58	=58	=58	=58	=58	=58	=58
2D\	.	.	2D\	.	2d/ 2a 2ff#	.	2d/ 2a 2ff#	.	2.ryy	2D/	.	2d/	.	2.ryy	2d/	.	2d/	.
!LO:TX:b:t=Fine	!	!	!LO:TX:b:t=Fine	!	!LO:TX:b:t=Fine.	!	!LO:TX:b:t=Fine.	!	!	!LO:TX:b:t=Fine.	!	!LO:TX:b:t=Fine.	!	!	!LO:TX:b:t=Fine.	!	!LO:TX:b:t=Fine	!
4r	.	.	4r	.	4r	.	4r	.	.	4r	.	4r	.	.	4r	.	4r	.
==	==	==	==	==	==	==	==	==	==	==	==	==	==	==	==	==	==	==
*-	*-	*-	*-	*-	*-	*-	*-	*-	*-	*-	*-	*-	*-	*-	*-	*-	*-	*-
!!!system-decoration: [(s1,s2)][([(s3,s4)][(s5,s6)])][([(s7,s8)]s9)]s10
!!!RDF**kern: > = above
!!!RDF**kern: < = below
!!!ENC: Filip Voros
!!!END: 2022-02-15
!!!ENC: Jan Barakat
!!!END: 2022-02-22
